X:5
T:Choice Wife
Z: id:dc-slipjig-4
M:9/8
L:1/8
K:D Mixolydian
FGA AFA c2A|BAG FAG FED|FGA AFA d3|dfe dcA GED:|!
d^cd ege =c2A|d^cd faf gfe|afa ged c2A|BAG FAG FED:|!
FGA AFd AFd|AFd AFA GED|FGA AFA c2A|BAG FAG FED:|!
DED DED c3|c2B c2A GED|DED DED d3|dfe dcA GED:|!
d^cd ege =c2A|d^cd faf gfe|afa ged c2A|BAG FAG FED:|!

